!!!!SEGMENT: pl-kk--kk-i-387--014_anonim--benedictus-es-domine.krn
!!!cenid: 18xx:1428
!!!COM: Anonim
!!!COM-rismid: pe30004985
!!!CDT:
!!!CNT:
!!!OTL: Benedictus es Domine
!!!PDT:
!!!AGN: Sacred
!!!SMS-siglum: PL-Kk
!!!SMS-shelfmark: Kk.I.387
!!!SMS-shelfwork: 014 W
!!!SMS-variant:
!!!SMS-altvar:
!!!NIFC-rismid: 1001139244
!!!URL-scan: http://repozytorium.nifc.pl/skany/pl-kk-nut--i-387
!!!ONB-nifc:
**kern	**text	**dynam	**kern	**text	**dynam	**kern	**text	**dynam	**kern	**text	**dynam
*part4	*part4	*part4	*part3	*part3	*part3	*part2	*part2	*part2	*part1	*part1	*part1
*staff4	*staff4	*	*staff3	*staff3	*	*staff2	*staff2	*	*staff1	*staff1	*
*I"Basso.	*	*	*I"Tenore.	*	*	*I"Alto.	*	*	*I"Soprano.	*	*
*I'B	*	*	*I'T	*	*	*I'A	*	*	*I'S	*	*
*clefF4	*	*	*clefC4	*	*	*clefC3	*	*	*clefC1	*	*
*k[b-e-a-d-]	*	*	*k[b-e-a-d-]	*	*	*k[b-e-a-d-]	*	*	*k[b-e-a-d-]	*	*
*A-:	*	*	*A-:	*	*	*A-:	*	*	*A-:	*	*
*M4/4	*	*	*M4/4	*	*	*M4/4	*	*	*M4/4	*	*
*met(C.)	*	*	*met(C.)	*	*	*met(C.)	*	*	*met(C.)	*	*
=1	=1	=1	=1	=1	=1	=1	=1	=1	=1	=1	=1
*all\right	*	*	*all\right	*	*	*all\right	*	*	*all\right	*	*below
!	!	!	!	!	!	!	!	!	!LO:TX:a:t=in As.	!	!
!LO:TX:a:i:t=Basso. Offertorium	!	!	!LO:TX:a:i:t=Tenore. Offertorium	!	!	!LO:TX:a:i:t=Alto. Offertorium	!	!	!LO:TX:a:i:t=Soprano Offertorium.	!	!
!LO:TX:a:i:t=No 14.	!	!	!LO:TX:a:i:t=No 14.	!	!	!LO:TX:a:i:t=No 14.	!	!	!LO:TX:a:i:t=No 14.	!	!LO:DY:rj
4.A-\	Be-	.	4.e-\	Be-	.	4.a-\	Be-	p	4.cc\	Be-	p
8A-\	-ne-	.	8e-\	-ne-	.	8a-\	-ne-	.	8cc\	-ne-	.
4G\	-dic-	.	4e-\	-dic-	.	4b-\	-dic-	.	4dd-\	-dic-	.
4A-\	-tus	.	4e-\	-tus	.	4a-\	-tus	.	4cc\	-tus	.
=2	=2	=2	=2	=2	=2	=2	=2	=2	=2	=2	=2
*2\right	*	*	*2\right	*	*	*2\right	*	*	*2\right	*	*
2.E-\	es,	.	2.e-\	es,	.	(2a-\	es,	.	(2cc\	es,	.
.	.	.	.	.	.	4g\)	.	.	4b-\)	.	.
4r	.	.	4r	.	.	4r	.	.	4r	.	.
=3	=3	=3	=3	=3	=3	=3	=3	=3	=3	=3	=3
2F\	Do-	.	2d-\	Do-	.	2a-\	Do-	.	2dd-\	Do-	.
4G\	-mi-	.	4B-\	-mi-	.	4b-\	-mi-	.	4ee-\	-mi-	.
4G\	-ne	.	4e-\	-ne	.	4b-\	-ne	.	4dd-\	-ne	.
=4	=4	=4	=4	=4	=4	=4	=4	=4	=4	=4	=4
2G\	De-	.	2e-\	De-	.	2b-\	De-	.	2dd-\	De-	.
4A-\	-us	.	4e-\	-us,	.	4a-\	-us	.	4cc\	-us,	.
4r	.	.	4r	.	.	4r	.	.	4r	.	.
=5	=5	=5	=5	=5	=5	=5	=5	=5	=5	=5	=5
2c\	Do-	.	2e-\	Do-	.	2a-\	Do-	.	2ee-\	Do-	.
4B-\	-mi-	.	4e-\	-mi-	.	4g\	-mi-	.	4dd-\	-mi-	.
4A-\	-ne	.	4e-\	-ne	.	4a-\	-ne	.	4cc\	-ne	.
!LO:LB:g=original	!	!	!LO:LB:g=original	!	!	!	!	!	!LO:LB:g=original	!	!
=6	=6	=6	=6	=6	=6	=6	=6	=6	=6	=6	=6
4F\	De-	.	4dn\	De-	.	4a-\	De-	.	4.cc\	De-	.
4F\	-us	.	4d\	-us	.	4a-\	-us	.	.	.	.
.	.	.	.	.	.	.	.	.	8b-\	-us	.
!	!	!	!	!	!	!LO:LB:g=original	!	!	!	!	!
4E-\	pa-	.	4e-\	pa-	.	4g\	pa-	.	2b-\	pa-	.
4Dn\	.	.	4f\	.	.	4a-\	.	.	.	.	.
=7	=7	=7	=7	=7	=7	=7	=7	=7	=7	=7	=7
4E-\	-trum	.	4e-\	-trum	.	4g\	-trum	.	4b-\	-trum	.
4E-\	no-	.	4B-\	no-	.	4g\	no-	.	4ee-\	no-	.
2BB-/	-stro-	.	4e-\	-stro-	.	4.b-\	-stro-	.	4gg\	-stro-	.
.	.	.	4dn\	.	.	.	.	.	4ff\	.	.
.	.	.	.	.	.	8a-\	.	.	.	.	.
=8	=8	=8	=8	=8	=8	=8	=8	=8	=8	=8	=8
8E-\	-rum,	.	8e-\	-rum,	.	8g\	-rum,	.	8ee-\	-rum,	.
8r	.	.	8r	.	.	8r	.	.	8r	.	.
4E-\	be-	.	2B-\	Be-	.	4g\	be-	.	4ee-\	Be-	.
4F\	.	.	.	.	.	4a-\	.	.	4ddn\	.	.
4G\	-ne-	.	4e-\	-ne-	.	4b-\	-ne-	.	4dd-X\	-ne-	.
=9	=9	=9	=9	=9	=9	=9	=9	=9	=9	=9	=9
4.A-\	-dic-	.	4.e-\	-dic-	.	4.a-\	-dic-	.	4.cc\	-dic-	.
8A-\	-tus	.	8e-\	-tus	.	8a-\	-tus	.	8cc\	-tus	.
4G\	be-	.	4e-\	be-	.	4b-\	be-	.	4dd-\	be-	.
4A-\	-ne-	.	4e-\	-ne-	.	4a-\	-ne-	.	4cc\	-ne-	.
=10	=10	=10	=10	=10	=10	=10	=10	=10	=10	=10	=10
4.E-\	-dic-	.	4.e-\	-dic-	.	4.a-\	-dic-	.	4.cc\	-dic-	.
8E-\	-tus	.	8e-\	-tus	.	8g\	-tus	.	8b-\	-tus	.
4E-\	es,	.	4e-\	es	.	4g\	es,	.	4b-\	es,	.
4r	.	.	4r	.	.	4r	.	.	4r	.	.
!LO:LB:g=original	!	!	!LO:LB:g=original	!	!	!	!	!	!LO:LB:g=original	!	!
=11	=11	=11	=11	=11	=11	=11	=11	=11	=11	=11	=11
2F\	Do-	.	2d-X\	Do-	.	2a-\	Do-	.	2dd-\	Do-	.
.	.	.	.	.	.	.	.	.	16qqee-/LL	.	.
.	.	.	.	.	.	.	.	.	16qqdd-/	.	.
.	.	.	.	.	.	.	.	.	16qqcc/	.	.
.	.	.	.	.	.	.	.	.	16qqdd-/JJ	.	.
4G\	-mi-	.	4B-\	-mi-	.	4b-\	-mi-	.	4ff\	-mi-	.
4G\	-ne	.	4e-\	-ne	.	4b-\	-ne	.	4ee-\	-ne	.
!	!	!	!	!	!	!LO:LB:g=original	!	!	!	!	!
=12	=12	=12	=12	=12	=12	=12	=12	=12	=12	=12	=12
2B-\	De-	.	2e-\	De-	.	2g\	De-	.	2dd-\	De-	.
4A-\	-us	.	4e-\	-us	.	4a-\	-us,	.	4cc\	-us,	.
4r	.	.	4r	.	.	4r	.	.	4r	.	.
=13	=13	=13	=13	=13	=13	=13	=13	=13	=13	=13	=13
2c\	Do-	.	2e-\	Do-	.	2a-\	Do-	.	2ee-\	Do-	.
4B-\	-mi-	.	4e-\	-mi-	.	4g\	-mi-	.	4dd-\	-mi-	.
4A-\	-ne	.	4e-\	-ne	.	4a-\	-ne	.	4cc\	-ne	.
=14	=14	=14	=14	=14	=14	=14	=14	=14	=14	=14	=14
4F\	De-	.	4dn\	De-	.	4a-\	De-	.	4.cc\	De-	.
4F\	-us	.	4d\	-us	.	4a-\	-us	.	.	.	.
.	.	.	.	.	.	.	.	.	8b-\	-us	.
4E-\	pa-	.	4e-\	pa-	.	4g\	pa-	.	2b-\	pa-	.
4Dn\	.	.	4f\	.	.	4a-\	.	.	.	.	.
=15	=15	=15	=15	=15	=15	=15	=15	=15	=15	=15	=15
4E-\	-trum	.	4e-\	-trum	.	4g\	-trum	.	4b-\	-trum	.
4E-\	no-	.	4B-\	no-	.	4g\	no-	.	4gg\	no-	.
2BB-/	-stro-	.	4.dn\	-stro-	.	2a-\	-stro-	.	4.ff\	-stro-	.
.	.	.	8f\	.	.	.	.	.	8ddn\	.	.
=16	=16	=16	=16	=16	=16	=16	=16	=16	=16	=16	=16
4E-\	-rum,	.	4e-\	-rum,	.	4g\	-rum	.	4ee-\	-rum,	.
4r	.	.	4r	.	.	4r	.	.	4r	.	.
2r	.	.	2r	.	.	2r	.	.	2r	.	.
!LO:LB:g=original	!	!	!LO:LB:g=original	!	!	!	!	!	!LO:LB:g=original	!	!
=17	=17	=17	=17	=17	=17	=17	=17	=17	=17	=17	=17
2.C/	et	.	2.A-/	et	.	2.e-\	et	.	2.ee-\	et	.
4C/	lau-	.	4E-/	lau-	.	4e-\	lau-	.	4a-\	lau-	.
=18	=18	=18	=18	=18	=18	=18	=18	=18	=18	=18	=18
4.BB-/	-da-	.	4.E-/	-da-	.	4.d-X\	-da-	.	4.a-\	-da-	.
8BB-/	-bi-	.	8E-/	-bi-	.	8d-\	-bi-	.	8g\	-bi-	.
4BB-/	-lis,,	.	4E-/	-lis,	.	4d-\	-lis	.	4g\	-lis	.
4r	.	.	4r	.	.	4r	.	.	4r	.	.
!	!	!	!	!	!	!LO:LB:g=original	!	!	!	!	!
=19	=19	=19	=19	=19	=19	=19	=19	=19	=19	=19	=19
2.AA-/	glo-	.	2.E-/	glo-	.	2.c\	glo-	.	2.ee-\	glo-	.
4C/	-ri-	.	4A-\	-ri-	.	4e-\	-ri-	.	4cc\	-ri-	.
=20	=20	=20	=20	=20	=20	=20	=20	=20	=20	=20	=20
2E-\	-o-	.	2A-\	-o-	.	2e-\	-o-	.	2cc\	-o-	.
4E-\	-sus,	.	4G/	-sus,	.	4e-\	-sus,	.	4b-\	-sus,	.
4r	.	.	4r	.	.	4r	.	.	4r	.	.
=21	=21	=21	=21	=21	=21	=21	=21	=21	=21	=21	=21
2.c\	glo-	f	2.e-\	glo-	f	2.a-\	glo-	f	2.ee-\	glo-	f
4c\	-ri-	.	4e-\	-ri-	.	4a-\	-ri-	.	4aa-\	-ri-	.
=22	=22	=22	=22	=22	=22	=22	=22	=22	=22	=22	=22
2B-\	-o-	.	2d-X\	-o-	.	2dd-\	-o-	.	4aa-\	-o-	.
.	.	.	.	.	.	.	.	.	4gg\	.	.
4B-\	-sus	.	4d-\	-sus	.	4b-\	-sus	.	4gg\	-sus	.
4Bn\	in	.	4dn\	in	.	4a-\	in	.	4ff\	in	.
=23	=23	=23	=23	=23	=23	=23	=23	=23	=23	=23	=23
!LO:SIC:v:l:s=sae-	!	!	!LO:SIC:v:l:s=sae-	!	!	!LO:SIC:v:l:s=sae-	!	!	!LO:SIC:v:l:s=sae-	!	!
2c\	se-	.	2.c\	se-	.	2a-\	se-	.	2ff\	se-	.
!	!	!	!	!	!	!	!	!	!LO:LB:g=original	!	!
2C/	-cu-	.	.	.	.	4g\	.	.	4.een\	.	.
.	.	.	4B-\	-cu-	.	4g\	-cu-	.	.	.	.
.	.	.	.	.	.	.	.	.	8ee\	-cu-	.
!LO:LB:g=original	!	!	!LO:LB:g=original	!	!	!	!	!	!	!	!
=24	=24	=24	=24	=24	=24	=24	=24	=24	=24	=24	=24
4F\	-lum,	.	4A-\	-lum,	.	4f\	-la,	.	4ff\	-lum,	.
4r	.	.	4r	.	.	4r	.	.	4r	.	.
2r	.	.	2r	.	.	2r	.	.	2r	.	.
=25	=25	=25	=25	=25	=25	=25	=25	=25	=25	=25	=25
2F\	et	.	2c\	et	.	2f\	et	.	2a-\	et	.
4F\	be-	.	4c\	be-	.	4f\	be-	.	4a-\	be-	.
4F\	-ne-	.	4c\	-ne-	.	4f\	-ne-	.	4a-\	-ne-	.
!	!	!	!	!	!	!LO:LB:g=original	!	!	!	!	!
=26	=26	=26	=26	=26	=26	=26	=26	=26	=26	=26	=26
2E-\	-dic-	.	2A-\	-dic-	.	2g-X\	-dic-	.	2cc\	-dic-	.
4E-\	-tum	.	4A-\	-tum	.	4g-\	-tum	.	4cc\	-tum	.
4r	.	.	4r	.	.	4r	.	.	4r	.	.
=27	=27	=27	=27	=27	=27	=27	=27	=27	=27	=27	=27
4E-\	no-	.	4A-\	no-	.	4g-X\	no-	.	4cc\	No-	.
4E-\	-men	.	4A-\	-men	.	4g-\	-men	.	4cc\	-men	.
4D-\	glo-	.	4A-\	glo-	.	4f\	glo-	.	4dd-\	glo-	.
8C\	-ri-	.	8A-\	-ri-	.	8g-\	-ri-	.	8ee-\	-ri-	.
!LO:SIC:v:l:s=-ae	!	!	!LO:SIC:v:l:s=-ae	!	!	!LO:SIC:v:l:s=-ae	!	!	!LO:SIC:v:l:s=-ae	!	!
8C\	-e	.	8A-\	-e	.	8g-\	-e	.	8ee-\	-e	.
=28	=28	=28	=28	=28	=28	=28	=28	=28	=28	=28	=28
2D-\	tu-	.	2A-\	tu-	.	2f\	tu-	.	2ff\	tu-	.
!LO:SIC:v:l:s=-ae	!	!	!LO:SIC:v:l:s=-ae	!	!	!LO:SIC:v:l:s=-ae	!	!	!LO:SIC:v:l:s=-ae	!	!
4D-\	-e,	.	4A-\	-e,	.	4f\	-e,	.	4dd-\	-e,	.
4r	.	.	4r	.	.	4r	.	.	4r	.	.
=29	=29	=29	=29	=29	=29	=29	=29	=29	=29	=29	=29
4r	.	p	4r	.	.	4r	.	.	4r	.	.
4d-X\	et	.	4f\	et	p	4a-\	et	p	4b-\	et	.
4d-\	be-	.	4f\	be-	.	4a-\	be-	.	4b-\	be-	.
4d-\	-ne-	.	4f\	-ne-	.	4a-\	-ne-	.	4b-\	-ne-	.
!LO:LB:g=original	!	!	!LO:LB:g=original	!	!	!	!	!	!LO:LB:g=original	!	!
=30	=30	=30	=30	=30	=30	=30	=30	=30	=30	=30	=30
2dn\	-dic-	.	2f\	-dic-	.	2a-\	-dic-	.	2cc-X\	-dic-	.
4d\	-tum	.	4f\	-tum	.	4a-\	-tum	.	4cc-\	-tum	.
4r	.	.	4r	.	.	4r	.	.	4r	.	.
=31	=31	=31	=31	=31	=31	=31	=31	=31	=31	=31	=31
4Dn\	no-	.	4A-\	no-	.	4f\	no-	.	4cc-X\	No-	.
4D\	-men	.	4A-\	-men	.	4f\	-men	.	4cc-\	-men	.
!	!	!	!	!	!	!LO:LB:g=original	!	!	!	!	!
4E-\	glo-	.	4A-\	glo-	.	4e-\	glo-	.	4cc-\	glo-	.
8E-\	-ri-	.	8A-\	-ri-	.	8e-\	-ri-	.	8cc-\	-ri-	.
!LO:SIC:v:l:s=-ae	!	!	!LO:SIC:v:l:s=-ae	!	!	!LO:SIC:v:l:s=-ae	!	!	!LO:SIC:v:l:s=-ae	!	!
8E-\	-e	.	8A-\	-e	.	8e-\	-e	.	8cc-\	-e	.
=32	=32	=32	=32	=32	=32	=32	=32	=32	=32	=32	=32
2.F-X\	tu-	.	2.A-\	tu-	.	2.dn\	tu-	.	2.cc-X\	tu-	.
!LO:SIC:v:l:s=-ae	!	!	!LO:SIC:v:l:s=-ae	!	!	!LO:SIC:v:l:s=-ae	!	!	!LO:SIC:v:l:s=-ae	!	!
4F-\	-e,	.	4A-\	-e,	.	4d\	-e,	.	4cc-\	-e,	.
=33	=33	=33	=33	=33	=33	=33	=33	=33	=33	=33	=33
2.E-\	quod	.	2.A-\	quod	.	2.e-\	quod	.	2.ccn\	quod	.
4E-\	est	.	4c\	est	.	4a-\	est	.	4ee-\	est	.
=34	=34	=34	=34	=34	=34	=34	=34	=34	=34	=34	=34
2.E-\	San-	.	2.c\	san-	.	2.a-\	san-	.	2.ee-\	San-	.
4E-\	-ctum	.	4c\	-ctum	.	4a-\	-ctum	.	4aa-\	-ctum	.
=35	=35	=35	=35	=35	=35	=35	=35	=35	=35	=35	=35
2E-\	quod	.	2c\	quod	.	2.a-\	quod	ff	4aa-\	quod	.
.	.	.	.	.	.	.	.	.	4ee-\	.	.
2E-\	est	.	4A-\	.	.	.	.	.	2cc\	est	.
.	.	.	4c\	est	.	4a-\	est	.	.	.	.
=36	=36	=36	=36	=36	=36	=36	=36	=36	=36	=36	=36
1E-	San-	.	(4d-X\	San-	.	2a-\	san-	.	1b-	san-	.
.	.	.	4B-\)	.	.	.	.	.	.	.	.
!	!	!	!LO:LB:g=original	!	!	!	!	!	!	!	!
.	.	.	4e-\	.	.	2g\	.	.	.	.	.
.	.	.	4d-\	.	.	.	.	.	.	.	.
!LO:LB:g=original	!	!	!	!	!	!	!	!	!	!	!
=37	=37	=37	=37	=37	=37	=37	=37	=37	=37	=37	=37
4A-\	-ctum	.	4c\	-ctum,	.	4a-\	-ctum	.	4a-\	-ctum,	.
4r	.	.	4r	.	.	4r	.	.	4r	.	.
2r	.	.	2r	.	.	2r	.	.	2r	.	.
!	!	!	!	!	!	!	!	!	!LO:LB:g=original	!	!
=38	=38	=38	=38	=38	=38	=38	=38	=38	=38	=38	=38
2.D-\	et	.	2.A-\	et	.	2.f\	et	.	2.a-\	et	.
4D-\	lau-	.	4A-\	lau-	.	4f\	lau-	.	4dd-\	lau-	.
!	!	!	!	!	!	!LO:LB:g=original	!	!	!	!	!
=39	=39	=39	=39	=39	=39	=39	=39	=39	=39	=39	=39
4.AA-/	-da-	.	4.d-X\	-da-	.	4.a-\	-da-	.	4.ff\	-da-	.
8AA-/	-bi-	.	8c\	-bi-	.	8a-\	-bi-	.	8ee-\	-bi-	.
4AA-/	-lis	.	4c\	-le,	.	4a-\	-lis,	.	4ee-\	-le	.
4r	.	.	4r	.	.	4r	.	.	4r	.	.
=40	=40	=40	=40	=40	=40	=40	=40	=40	=40	=40	=40
2C/	et	.	2A-\	et	.	2e-\	et	.	2a-\	et	.
4C/	glo-	.	4e-\	glo-	.	4a-\	glo-	.	4gg-X\	glo-	.
4C/	-ri-	.	4e-\	-ri-	.	4a-\	-ri-	.	4gg-\	-ri-	.
=41	=41	=41	=41	=41	=41	=41	=41	=41	=41	=41	=41
2C/	-o-	.	2e-\	-o-	.	2a-\	-o-	.	2gg-X\	-o-	.
4D-/	-sum,	.	4d-X\	-sum,	.	4a-\	-sum,	.	4ff\	-sum,	.
4r	.	.	4r	.	.	4r	.	.	4r	.	.
=42	=42	=42	=42	=42	=42	=42	=42	=42	=42	=42	=42
2D-\	et	.	2d-\	et	f	2a-\	et	f	2ff\	et	f
4D-\	glo-	.	4f-X\	glo-	.	4b-\	glo-	.	4ggn\	glo-	.
4D-\	-ri-	.	4f-\	-ri-	.	4b-\	-ri-	.	4gg\	-ri-	.
!LO:LB:g=original	!	!	!LO:LB:g=original	!	!	!	!	!	!	!	!
=43	=43	=43	=43	=43	=43	=43	=43	=43	=43	=43	=43
2Dn\	-o-	.	2fn\	-o-	.	2cc-X\	-o-	.	2aa-\	-o-	.
4D\	-sum	.	4f\	-sum,	.	4a-\	-sum,	.	4cc-X\	-sum,	.
8r	.	.	8r	.	.	8r	.	.	8r	.	.
.	.	.	.	.	p	.	.	.	.	.	.
8dn\	in	.	8f\	in	.	8a-\	in	.	8cc-\	in	.
=44	=44	=44	=44	=44	=44	=44	=44	=44	=44	=44	=44
!LO:SIC:v:l:s=sae-	!	!	!LO:SIC:v:l:s=sae-	!	!	!LO:SIC:v:l:s=sae-	!	!	!LO:SIC:v:l:s=sae-	!	!
2.dn\	se-	.	2.f\	se-	.	2.a-\	se-	.	2.cc-X\	se-	.
!LO:SIC:v:s=4Dn	!	!	!	!	!	!	!	!	!	!	!
4D-\	-cu-	.	4f\	-cu-	.	4a-\	-cu-	.	4b-\	-cu-	.
!	!	!	!	!	!	!LO:LB:g=original	!	!	!LO:LB:g=original	!	!
=45	=45	=45	=45	=45	=45	=45	=45	=45	=45	=45	=45
4E-\	-lum,	.	4e-\	-la.	.	4g\	-la,	.	4b-\	-lum,	.
4r	.	.	4r	.	.	4r	.	.	4r	.	.
2r	.	.	2r	.	.	2r	.	.	2r	.	.
=46	=46	=46	=46	=46	=46	=46	=46	=46	=46	=46	=46
4.A-\	be-	.	4.e-\	be-	.	4.a-\	Be-	.	4.ccn\	Be-	.
8A-\	-ne-	.	8e-\	-ne-	.	8a-\	-ne-	.	8cc\	-ne-	.
4G\	-dic-	.	4e-\	-dic-	.	4b-\	-dic-	.	4dd-\	-dic-	.
4A-\	-tus	.	4e-\	-tus	.	4a-\	-tus	.	4cc\	-tus	.
=47	=47	=47	=47	=47	=47	=47	=47	=47	=47	=47	=47
2.E-\	es,	.	2.e-\	es,	.	(2a-\	es,	.	(2cc\	es,	.
.	.	.	.	.	.	4g\)	.	.	4b-\)	.	.
4r	.	.	4r	.	.	4r	.	.	4r	.	.
=48	=48	=48	=48	=48	=48	=48	=48	=48	=48	=48	=48
2F\	Do-	.	2d-X\	Do-	.	2a-\	Do-	.	4dd-\	Do-	.
.	.	.	.	.	.	.	.	.	4ff\	.	.
4G\	-mi-	.	4B-\	-mi-	.	4b-\	-mi-	.	4ee-\	-mi-	.
4G\	-ne	.	4e-\	-ne	.	4b-\	-ne	.	4dd-\	-ne	.
=49	=49	=49	=49	=49	=49	=49	=49	=49	=49	=49	=49
2A-\	De-	.	2e-\	De-	.	2b-\	De-	.	2dd-\	De-	.
4A-\	-us,	.	4e-\	-us,	.	4a-\	-us,	.	4cc\	-us,	.
4r	.	.	4r	.	.	4r	.	.	4r	.	.
!LO:LB:g=original	!	!	!LO:LB:g=original	!	!	!	!	!	!	!	!
=50	=50	=50	=50	=50	=50	=50	=50	=50	=50	=50	=50
2C/	Do-	.	4A-X\	Do-	.	2g-X\	Do-	.	2ee-\	Do-	.
.	.	.	4An\	.	.	.	.	.	.	.	.
4F\	-mi-	.	4B-\	-mi-	.	4f\	-mi-	.	4dd-\	-mi-	.
4E-\	-ne	.	4A\	-ne	.	4f\	-ne	.	4cc\	-ne	.
=51	=51	=51	=51	=51	=51	=51	=51	=51	=51	=51	=51
2D-X\	Do-	.	2B-\	Do-	.	2f\	Do-	.	4b-\	Do-	.
.	.	.	.	.	.	.	.	.	4aa-\	.	.
!	!	!	!	!	!	!LO:LB:g=original	!	!	!	!	!
4Dn\	-mi-	.	4c-X\	-mi-	.	4gn\	-mi-	.	4gg\	-mi-	.
4D\	-ne	.	4c-\	-ne	.	4a-\	-ne	.	4ff\	-ne	.
!	!	!	!	!	!	!	!	!	!LO:LB:g=original	!	!
=52	=52	=52	=52	=52	=52	=52	=52	=52	=52	=52	=52
1E-	De-	.	2cn\	De-	.	2a-\	De-	.	2.ee-\	De-	.
.	.	.	2B-\	.	.	2g\	.	.	.	.	.
.	.	.	.	.	.	.	.	.	4dd-X\	.	.
=53	=53	=53	=53	=53	=53	=53	=53	=53	=53	=53	=53
8A-\	-us,	.	8A-\	-us,	.	8a-\	-us,	.	8cc\	-us,	.
8r	.	.	8r	.	.	8r	.	.	8r	.	.
4c\	pa-	.	4e-\	pa-	.	4a-\	pa-	.	4ee-\	pa-	.
4B-\	-trum	.	4e-\	-trum	.	4g\	-trum	.	4ee-\	-trum	.
4E-\	no-	.	4e-\	no-	.	4g\	no-	.	4dd-\	no-	.
=54	=54	=54	=54	=54	=54	=54	=54	=54	=54	=54	=54
4A-\	-stro-	.	2e-\	-stro-	.	2a-\	-stro-	.	4cc\	-stro-	.
4c\	.	.	.	.	.	.	.	.	4aa-\	.	.
4B-\	.	.	4d-X\	.	.	4b-\	.	.	4gg\	.	.
4A-\	.	.	4dn\	.	.	4cc-X\	.	.	4ff\	.	.
=55	=55	=55	=55	=55	=55	=55	=55	=55	=55	=55	=55
4G\	.	.	4e-\	-rum	.	4b-\	.	.	4ee-\	.	.
4E-\	-rum	.	4B-\	et-	.	4g\	-rum	.	4dd-\	-rum	.
!	!	!	!LO:LB:g=original	!	!	!	!	!	!	!	!
4F\	et	.	4A-\	.	.	4a-\	et	.	4cc\	et	.
4D-\	lau-	.	4B-\	-lau-	.	4f\	lau-	.	8ee-\L	lau-	.
.	.	.	.	.	.	.	.	.	8dd-\J	.	.
!LO:LB:g=original	!	!	!	!	!	!	!	!	!	!	!
=56	=56	=56	=56	=56	=56	=56	=56	=56	=56	=56	=56
2.E-\	-da-	.	4c\	-da-	.	2a-\	-da-	.	2cc\	-da-	.
.	.	.	2e-\	.	.	.	.	.	.	.	.
.	.	.	.	.	.	2g\	-bi-	.	2b-\	-bi-	.
4E-\	-bi-	.	4d-X\	-bi-	.	.	.	.	.	.	.
=57	=57	=57	=57	=57	=57	=57	=57	=57	=57	=57	=57
4AA-/	-le,	.	4c\	-lis,	.	4a-\	-lis	.	4a-\	-lis.	.
4r	.	.	4r	.	.	4r	.	.	4r	.	.
!	!	!	!	!	!	!LO:LB:g=original	!	!	!	!	!
4r	.	.	4r	.	.	4r	.	.	4r	.	.
.	.	f	.	.	f	.	.	f	.	.	ff
8A-\	al-	.	8A-\	al-	.	8a-\	al-	.	8a-\	Al-	.
8A-\	-le-	.	8A-\	-le-	.	8a-\	-le-	.	8a-\	-le-	.
!	!	!	!	!	!	!	!	!	!LO:LB:g=original	!	!
=58	=58	=58	=58	=58	=58	=58	=58	=58	=58	=58	=58
2D-\	-lu-	.	2A-\	-lu-	.	2f\	-lu-	.	2dd-\	-lu-	.
8AA-/	-ia	.	8A-\	-ia	.	8e-\	-ia	.	8cc\	-ia	.
8r	.	.	8r	.	.	8r	.	.	8r	.	.
8A-\	al-	.	8A-\	al-	.	8a-\	al-	.	8a-\	al-	.
8A-\	-le-	.	8A-\	-le-	.	8a-\	-le-	.	8a-\	-le-	.
=59	=59	=59	=59	=59	=59	=59	=59	=59	=59	=59	=59
2D-\	-lu-	.	2d-X\	-lu-	.	2a-\	-lu-	.	2ff\	-lu-	.
8A-\	-ia	.	8c\	-ia	.	8a-\	-ia	.	8ee-\	-ia	.
8r	.	.	8r	.	.	8r	.	.	8r	.	.
4A-\	al-	.	4c\	al-	.	4a-\	al-	.	4ee-\	al-	.
!	!	!	!LO:LB:g=original	!	!	!	!	!	!	!	!
=60	=60	=60	=60	=60	=60	=60	=60	=60	=60	=60	=60
2.E-\	-le-	.	2.B-\	-le-	.	4a-\	-le-	.	2.ee-\	-le-	.
.	.	.	.	.	.	4g\	.	.	.	.	.
.	.	.	.	.	.	4f\	.	.	.	.	.
4E-\	-lu-	.	4B-\	-lu-	.	4g\	-lu-	.	4dd-\	-lu-	.
=61	=61	=61	=61	=61	=61	=61	=61	=61	=61	=61	=61
4A-\	-ia	.	4A-\	-ia	.	4a-\	-ia	.	4cc\	-ia	.
4r	.	.	4r	.	.	4r	.	.	4r	.	.
!LO:LB:g=original	!	!	!	!	!	!	!	!	!	!	!
4r	.	.	4r	.	.	4r	.	.	4r	.	.
8A-\	al-	.	8A-\	al-	.	8a-\	al-	.	8a-\	al-	.
8A-\	-le-	.	8A-\	-le-	.	8a-\	-le-	.	8a-\	-le-	.
!	!	!	!	!	!	!LO:LB:g=original	!	!	!	!	!
=62	=62	=62	=62	=62	=62	=62	=62	=62	=62	=62	=62
2D-\	-lu-	.	2d-X\	-lu-	.	2a-\	-lu-	.	2ff\	-lu-	.
8A-\	-ia	.	8c\	-ia	.	8a-\	-ia	.	8ee-\	-ia	.
8r	.	.	8r	.	.	8r	.	.	8r	.	.
8A-\	al-	.	8c\	al-	.	8a-\	al-	.	8a-\	al-	.
8A-\	-le-	.	8c\	-le-	.	8a-\	-le-	.	8a-\	-le-	.
!	!	!	!	!	!	!	!	!	!LO:LB:g=original	!	!
=63	=63	=63	=63	=63	=63	=63	=63	=63	=63	=63	=63
2C/	-lu-	.	2e-\	-lu-	.	2a-\	-lu-	.	2gg-X\	-lu-	.
8D-\	-ia	.	8d-X\	-ia	.	8a-\	-ia	.	8ff\	-ia	.
8r	.	.	8r	.	.	8r	.	.	8r	.	.
4Dn\	al-	.	4c-X\	al-	.	4a-\	al-	.	4aa-\	al-	.
=64	=64	=64	=64	=64	=64	=64	=64	=64	=64	=64	=64
2.E-\	-le-	.	2cn\	-le-	.	2a-\	-le-	.	2.ee-\	-le-	.
.	.	.	4.B-\	.	.	2g\	-lu-	.	.	.	.
4E-\	-lu-	.	.	.	.	.	.	.	8dd-\L	-lu-	.
.	.	.	8d-X\	-lu-	.	.	.	.	8b-\J	.	.
!	!	!	!LO:LB:g=original	!	!	!	!	!	!	!	!
=65	=65	=65	=65	=65	=65	=65	=65	=65	=65	=65	=65
4A-\	-ia	.	4c\	-ia	.	4a-\	-ia	.	8a-\	-ia	.
.	.	.	.	.	.	.	.	.	8r	.	.
4r	.	.	4r	.	.	4r	.	.	4e-/	al-	.
4r	.	.	4r	.	.	4r	.	.	4e-/	-le-	.
4AA-/	al-	.	4A-/	al-	.	4c\	al-	.	4e-/	-lu-	.
=66	=66	=66	=66	=66	=66	=66	=66	=66	=66	=66	=66
2.E-\	-le-	.	4A-/	-le-	.	4c\	-le-	.	4.e-/	-ia	.
.	.	.	8G/L	.	.	8B-\L	.	.	.	.	.
.	.	.	8A-/J	.	.	8c\J	.	.	8e-/	al-	.
.	.	.	4B-\	.	.	4d-\	.	.	4e-/	-le-	.
4E-\	-lu-	.	4B-\	-lu-	.	4d-\	-lu-	.	8f/L	-lu-	.
.	.	.	.	.	.	.	.	.	8g/J	.	.
=67	=67	=67	=67	=67	=67	=67	=67	=67	=67	=67	=67
1AA-;	-ia.	.	1A-;	-ia.	.	1c;	-ia.	.	1a-;	-ia.	.
==	==	==	==	==	==	==	==	==	==	==	==
*-	*-	*-	*-	*-	*-	*-	*-	*-	*-	*-	*-
!!!system-decoration: [(s1,s2,s3,s4)]
!!!ENC: Marta Lawrence
!!!END: 2021-01-18
!!!ENC:Andrzej Borzym
!!!END:2021-01-15
